X:1
T:In the Bleak Midwinter
T:In the Bleak Midwinter
%%score ( 1 2 ) ( 3 4 5 )
L:1/8
M:4/4
K:F
V:1 treble nm="Piano" snm="Pno."
V:2 treble 
V:3 bass nm="Piano" snm="Pno."
V:4 bass 
V:5 bass 
V:1
 [FA]2 | ([F-A]3 [FB]) [Fc]2 [CA]2 | [DG]4 [DF]2 z2 | ([D-G]3 [DA]) [DG]2 D2 | [B,G]6 z2 | %5
w: 1|In the bleak mid-|win- ter,|fros- ty wind made|moan,|
w: 2~Our|God, heaven can- not|hold him,|nor have earth sus-|tain;|
w: 3|An- gels and ar-|chan- gels|may * ga- thered|there,|
w: 4|What _ can I|give him,|poor _ as I|am?|
 [CA]3 [FB] [Fc]2 [CA]2 | [DG]3- [DG] [DF]2 z2 | (G2 [FA]2 G3) F | F6 z2 | %9
w: earth stood hard as|i- a- ron,|wa- ter like a|stone;|
w: heaven and earth shall|flee ra- way|when he comes to|reign:|
w: che- ru- bim and|se- * phim|thronged would bring the|air;|
w: If I were a|shep- * herd,|I * * a|lamb;|
 [FB]3 [FA] [FB]2 [_Ec]2 | [Dd]2- [Dd]2 [FA]2 [FA]2 | (([Fc]2 [EA]2)) ([D-G]2 [DF]2) | [CE]6 | %13
w: snow had fal- len,|snow on snow, a|snow ble- on suf-|snow,|
w: in the bleak mid-|win- * ter *|sta- her place den|ficed|
w: but his mo- ther|on- * ly, *|in would mai- my|bliss,|
w: if I were a|wise _ man, *|I * do *|part;|
 [CA]2 | (([CA]3 [FB])) [Fc]2 [CA]2 | [DG]4 [DF]2 z2 | (G2 A2) G3 F | [FF]8 |] %18
w: the|in the bleak mid-|win- ter,|long _ _ a-|go.|
w: yet|Lord shiped God in-|car- nate,|Je- * * sus|Christ.|
w: |wor- I the Be-|lov- ed|with _ _ a|kiss.|
w: |what * can I|give him:|give _ _ my|heart.|
V:2
 x2 | x8 | x8 | x6 C2 | x8 | x8 | x8 | (F2 x2 E3) F | F6 x2 | x8 | x4 x2 z2 | x8 | x6 | z2 | x8 | %15
 x8 | (F4 E3) F | x8 |] %18
V:3
 [F,C]2 | ([F,C-]3 [G,C]) [A,C]2 F,2 | [D,A,]4 [D,A,]2 z2 | (G,3 D,) [B,,D,]2 [A,,F,]2 | %4
 (([G,,F,]4 [C,E,]2)) z2 | F,3 [G,C] [A,C]2 F,2 | [D,A,]3- [D,A,] [D,A,]2 z2 | %7
 (([B,,D]2 [B,,D]2 [C,B,]3)) [F,A,] | [F,A,]6 z2 | [D,B,]3 [F,C] [D,B,]2 [C,A,]2 | %10
 [B,,B,]2- [B,,B,]2 [D,A,]2 z2 | ([A,,-F,]2 [A,,C]2) ([B,,-B,]2 [B,,A,]2) | [C,G,]6 | z2 | %14
 (F,3 [G,C]) [A,C]2 F,2 | [D,A,]4 [D,A,]2 z2 | ([B,,D]4 [C,B,]3) [F,A,] | [F,A,]8 |] %18
V:4
 x2 | x6 F,2 | x8 | ((B,,3 C,)) x4 | x8 | F,3 x3 F,2 | x8 | x8 | x8 | x8 | x6 [D,A,]2 | x8 | x6 | %13
 F,2 | F,3 x3 F,2 | x8 | x8 | x8 |] %18
V:5
 x2 | x8 | x8 | x8 | x8 | x8 | x8 | x8 | x8 | x8 | x8 | x8 | x6 | F,2 | x8 | x8 | x8 | x8 |] %18

